X:1
T: The McFarlane Rant
C:
R:Reel
Q: 232
K:D
M:4/4
L:1/8
|:g|fA AA ed Bd|fA AA e2 de|fA AA ed Bf|ae fd e2 dg|
fA AA ed Bd|fA AA e2 de|fA AA ed Bf|ae fd e2 d:|
|:e|fd fd eB Bg|fd fd e2 de|fd fd eB Bf|ae fd e2 de|
fd fd eB Bg|fd fd e2 de|fd fd eB Bf|ae fd e2 d:|
